packages/core/src/svgs/mzr.svg

<svg width="24" height="24" viewBox="0 0 24 24" fill="none" xmlns="http://www.w3.org/2000/svg">
<g clip-path="url(#clip0_31_14546)">
<path d="M0 0H24V24H0V0Z" fill="#F0F3FA"/>
<path fill-rule="evenodd" clip-rule="evenodd" d="M18 18.4284V5.57129L12 10.457L6 5.57129V18.4284L9 15.9256V11.387L12 13.9799L15 11.387V15.9299L18 18.4284ZM12 12.5827L7.98857 9.20557V15.317L7.05857 16.0156V7.78272L12 11.8241V12.5827ZM12 12.5827L15.9986 9.20557V15.317L16.9414 16.0156V7.78272L12 11.8241V12.5827ZM10.2857 14.0613V16.0456L12.0043 17.657L13.7143 16.0456V14.0613L12.0043 15.6899L10.2857 14.057V14.0613Z" fill="black"/>
</g>
<defs>
<clipPath id="clip0_31_14546">
<rect width="24" height="24" fill="white"/>
</clipPath>
</defs>
</svg>

<svg xmlns="http://www.w3.org/2000/svg" width="24" height="24" fill="none" viewBox="0 0 24 24"><g clip-path="url(#a)"><path fill="#F0F3FA" d="M0 0h24v24H0z"/><path fill="#000" fill-rule="evenodd" d="M18 18.428V5.571l-6 4.886-6-4.886v12.857l3-2.502v-4.539l3 2.593 3-2.593v4.543zm-6-5.845L7.989 9.206v6.111l-.93.699V7.783L12 11.824zm0 0 3.999-3.377v6.111l.942.699V7.783L12 11.824zm-1.714 1.478v1.985l1.718 1.611 1.71-1.611V14.06l-1.71 1.629-1.718-1.633z" clip-rule="evenodd"/></g><defs><clipPath id="a"><path fill="#fff" d="M0 0h24v24H0z"/></clipPath></defs></svg>
